X: 13
T:La boulangère a des écus
C:Paroles : Nicolas Gallet
C:Musique anonyme (env. 1720)
Z:Transcrit et/ou corrigé par Michel BELLON - 2006-04-28
Z:Pour toute observation mailto:galouvielle@free.fr
M:6/8
L:1/8
K:F
|: "F"FFF "Bb"B2B | B2B B2B | "C"c2c G2A | "Bb"(B2A) "C"G2z :| G2GG2B |
"Bb"A2G F2F | "C"E2D E2F | GAG "F"C2F | "C"E2D E2F | "C7"(A2G) "F"F3 |]

%%footer $D   Galouvielle-MBe 2006 \n-- (--)
